tela-icon-theme/src/symbolic/devices/sim-card-symbolic.svg

<svg width="16" height="16" version="1.1" xmlns="http://www.w3.org/2000/svg">
 <path d="m11 10v1c0 1-1 1-1 1h-1v-2zm0-5v1h-2v-2h1s1 0 1 1zm0 2v2h-2v-2zm-3-3v8h-2v-8zm-3 6v2h-1c-1 0-1-1-1-1v-1zm0-6v2h-2v-1c0-1 1-1 1-1zm0 3v2h-2v-2z" fill="#5d656b"/>
 <path d="m15 10-4 4h-8c-1.108 0-2-0.892-2-2v-8c0-1.108 0.892-2 2-2h10c1.108 0 2 0.892 2 2zm-1-0.41406v-5.5859c0-0.554-0.446-1-1-1h-10c-0.554 0-1 0.446-1 1v8c0 0.554 0.446 1 1 1h7.5859z" fill="#5d656b"/>
</svg>

<svg xmlns="http://www.w3.org/2000/svg" width="16" height="16"><path d="M15 4c0-2-2-2-2-2H3C1 2 1 4 1 4v8s0 2 2 2h10l2-2zm-4 6v1c0 1-1 1-1 1H9v-2zm0-5v1H9V4h1s1 0 1 1zm0 2v2H9V7zM8 4v8H6V4zm-3 6v2H4c-1 0-1-1-1-1v-1zm0-6v2H3V5c0-1 1-1 1-1zm0 3v2H3V7z" fill="#5d656b"/></svg>
